!! 00010] TT[TB
!! Eigene Aufnahme
!!!OTL: Xue gai shanliang There has been a fall of snow on the pass
!!!ARE: Neimeng
!! Ethnic Group: Menggu
!! MM, S. 1548
!!!SCT: C0579
!!!YEM: Copyright 1995, estate of Helmut Schaffrath.
**kern
*ICvox
*Ivox
*M2/4
*k[]
*C:
{8e
16g
16a
8.cc
16a
=1
8.g
16a
4g}
=2
{8e
16g
16a
8.cc
16a
=3
2g}
=4
{8e
16g
16a
8.cc
16a
=5
8g
16a
16cc
8.c
16d}
=6
{8.e
16e
16d
16e
8g
=7
2c}
==
!!!AGN: NN
!! Saenger: Chao Lun Batou, der das Buch nur zum Nachschlagen
!!    benutzte und ansonsten auswendig sang. Da er aus dem Osten der
!!    Neimeng kommt, kennt er nicht so viele Lieder des Westens.
!!    Alle Lieder wurden mit erkaelteter, halber Stimme in meinem
!!    Zimmer gesungen. FOTO VORHANDEN (DIAS)  31.3.87
!!    Variante, 2 Strophen.
!!!ONB: ESAC (Essen Associative Code) Database: CHINA
!!!AMT: simple duple
!!!AIN: vox
!!!EED: Helmut Schaffrath
!!!EEV: 1.0
*-
